X:9
T:Ensemble, ensemble, nous pouvons faire ensemble
M:C
L:1/4
K:G
D|G2GF|EAA3/G/|F3/G/AF|DGG D|G2GF|EAAG|F2EF|G3 ||
B|B3/A/GF|E3A|A3/G/FE|D3B|B3/A/GF|E4|c2BA|G3 ||
